icons/shield_us_nh_3.svg

<svg width="26" height="20" overflow="visible" xmlns="http://www.w3.org/2000/svg">
 <path d="m 2.1148941,19.499731 -0.257469,-0.0059 -0.1579586,-0.04681 -0.1404514,-0.111131 -0.1345853,-0.134606 -0.0995,-0.128719 -0.099435,-0.187289 -0.087762,-0.210632 -0.04681,-0.234095 -0.00588,-0.251583 0.029253,-0.193074 0.064395,-0.216478 0.052678,-0.169771 0.5090619,-1.193701 0.4739667,-0.901146 0.076046,-0.140391 0.064405,-0.128719 0.040961,-0.187259 0.04681,-0.216518 0.00588,-0.111232 v -0.140391 l -0.00588,-0.111202 0.00588,-0.09364 -0.00588,-0.12875 0.023371,-0.134565 0.00588,-0.134606 0.040961,-0.111131 0.081911,-0.128719 0.093629,-0.146338 0.052688,-0.128719 0.1053461,-0.169711 0.081912,-0.193115 0.058479,-0.16971 0.035093,-0.122834 0.017585,-0.105315 0.1345853,-1.123531 -1.737898,0.0059 -0.1053663,-0.05845 -0.087763,-0.05269 -0.064329,-0.02932 -0.064395,-0.07018 -0.046838,-0.0878 -0.04681,-0.122864 -0.011736,-0.134605 0.2691708,-1.6033128 0.538392,-0.3511033 -0.4388614,-0.3861883 0.017585,-0.1288001 0.00582,-0.093563 0.064405,-0.081912 0.035074,-0.1112122 0.02932,-0.1345853 0.058479,-0.0995 0.058544,-0.1638247 V 7.8083217 L 1.3835241,7.7439125 1.0557739,7.7264093 0.86859619,7.6796043 0.68718358,7.6269111 l -0.0761422,-0.00585 -0.0233672,-0.04097 -0.0234288,-0.052673 v -0.058458 l 0.005872,-0.081912 0.029321,-0.076127 V 7.1002723 L 0.66376795,6.9188597 0.79835333,6.69063 0.8569126,6.5618905 0.96217795,6.3453928 1.0265831,6.1991561 1.1553024,5.9475733 1.2547361,5.6783824 1.3894022,5.4091914 1.4361456,4.9936932 0.8685245,4.9001296 0.76323896,4.6250928 0.7164289,4.4261023 0.66374069,4.2037184 0.65202379,4.0574919 0.73392096,3.8643472 V 3.840976 l -0.0818972,-0.1463073 -0.0584583,-0.099514 -0.029321,-0.09942 -0.0526882,-0.1229442 v -0.087783 l -0.00581,-0.1696704 -0.005872,-0.099435 V 2.939775 L 0.52324487,2.7994245 0.58178395,2.7174163 0.59928712,2.670692 0.67542932,2.635508 0.73973852,2.5829157 0.81578481,2.4248764 0.90356315,2.307879 1.0206615,2.1791495 1.1259269,2.0620511 1.3014633,1.9450537 l 0.1112324,-0.0995 0.1930437,-0.011636 0.1521834,-0.040956 0.257469,-0.058539 0.1579586,-0.052693 0.1696705,-0.02922 0.2165179,-0.070276 0.03517,-0.040956 0.1287294,0.03517 0.1345854,0.040956 0.1521027,0.029239 0.1169873,0.011717 0.3218842,-0.011717 0.2340856,-0.06441 L 3.82932,1.5296393 3.9697714,1.4593631 4.151184,1.3306437 4.2916354,1.2253582 l 0.3803425,0.093548 0.1111314,0.00587 0.1229643,-0.00587 0.1462266,-0.00579 0.1345854,-0.03517 0.1170782,-0.017503 0.093564,-0.035088 0.070261,-0.070276 L 5.5906522,1.0497937 5.7252578,0.9561655 5.9651287,0.9444486 6.0646437,0.9327125 6.181631,0.9385785 6.275279,0.9444445 6.4449495,0.8742491 6.5210915,0.821576 6.6322437,0.77474758 6.7551071,0.66940146 6.8838264,0.61680917 7.0067706,0.499731 24,0.5 c 0.707107,1.119e-5 1.5,0.7928932 1.5,1.5 v 16 c 0,0.707107 -0.792893,1.500009 -1.5,1.5 z" clip-rule="evenodd" fill="#fff" fill-rule="evenodd" stroke="#000" stroke-width="1.181" style="stroke:#000;stroke-width:1;stroke-miterlimit:4;stroke-dasharray:none"/>
</svg>

<svg width="26" height="20" overflow="visible" xmlns="http://www.w3.org/2000/svg">
 <path d="m2.115 19.5-.258-.006-.158-.047-.14-.111-.135-.135-.1-.128-.099-.188-.087-.21-.047-.234-.006-.252.03-.193.064-.217.052-.17.51-1.193.473-.901.076-.14.065-.13.04-.187.048-.216.005-.111v-.14l-.005-.112.005-.094-.005-.128.023-.135.006-.134.04-.112.083-.128.093-.147.053-.128.105-.17.082-.193.059-.17.035-.123.017-.105.135-1.124-1.738.006-.105-.058-.088-.053-.064-.03-.065-.07-.047-.087-.046-.123-.012-.135.27-1.603.537-.351-.438-.386.017-.129.006-.094.064-.081.036-.112.029-.134.058-.1.059-.164v-.076l-.263-.064-.328-.018-.187-.046-.182-.053-.076-.006-.023-.04-.024-.054V7.47l.006-.082.03-.076V7.1l.064-.182.134-.228.059-.13.105-.216.065-.146.128-.251.1-.27.134-.269.047-.415L.87 4.9l-.106-.275-.047-.199-.052-.222-.012-.147.082-.193v-.023l-.082-.146-.058-.1-.03-.1-.052-.122v-.088l-.006-.17-.006-.1V2.94l.023-.14.059-.083.017-.046.076-.035.065-.053.076-.158.088-.117.117-.129.105-.117.175-.117.112-.1.193-.011.152-.041.257-.059.158-.052.17-.03.217-.07.035-.04.128.034.135.041.152.03.117.011.322-.011.234-.065.146-.052.14-.07.182-.13.14-.105.381.094.111.006.123-.006.146-.006.135-.035.117-.018.094-.035.07-.07.123-.105.134-.094.24-.012.1-.011.117.006.093.005.17-.07.076-.052.111-.047.123-.106.129-.052L7.007.5H24c.707 0 1.5.793 1.5 1.5v16c0 .707-.793 1.5-1.5 1.5z" clip-rule="evenodd" fill="#fff" fill-rule="evenodd" stroke="#000" stroke-width="1.181" style="stroke:#000;stroke-width:1;stroke-miterlimit:4;stroke-dasharray:none"/>
</svg>
